X:1
T:Title
%%score { 1 | 2 } { 3 | ( 4 5 ) }
L:1/8
Q:1/4=100
M:4/4
K:Db
V:1 treble nm="Grand Piano, Soprano"
V:2 treble 
V:3 bass nm="Choir Pad, Haste Away"
V:4 bass 
V:5 bass 
V:1
 F2 F2 FEDD | d2 d2 d4 | G2 G2 GFEE | e2 e2 e4 | d2 d2 d/A/A B/A/F | A2 B<F A4 | %6
w: By~Onie~Lee~Francis * * * * *||||||
 d2 d2 d/A/A B/A/A | c2 c2 c4 | d d2 e f f2 e | d d2 B A4 | d d2 e f f2 d | e6 z2 | d d2 e f f2 e | %13
w: |||||||
 d d2 B A4 | d d2 e f f2 e | d6 z2 | d2 d2 dABF | A2 BF A2 z2 | d2 d2 dAFA | c2 c2 c2 z2 | %20
w: |||||||
 d d2 e fd z2 | B B2 c dB z2 | e e2 d B2 f2 | e6 z2 | d2 d2 dABF | A2 BF A2 z2 | d2 d2 dAFA | %27
w: |||||||
 c2 c2 c2 z2 | d d2 e ff z2 | B B2 c dd z2 | d d2 e f2 e2 | d6 z2 | z8 |] %33
w: ||||||
V:2
 D2 D2 DC z2 | F2 G_F =F4 | E2 E2 EDCC | G2 G2 G4 | F2 F2 FFFD | F2 F<D F4 | F2 F2 FF .F2 | %7
 G2 G2 G4 | F F2 G A A2 =A | B B2 G F4 | F F2 G A A2 A | A6 z2 | F F2 G A A2 =A | B B2 G F2 G2 | %14
 A A2 B A A2 G | F2 _F2 =F2 z2 | FFFF F2 FD | FFFD F2 z2 | FFFF F2 DF | GGGG G2 z2 | F F2 G AF z2 | %21
 G G2 A BG z2 | =G G2 G G2 E2 | A6 z2 | FFFF F2 FD | FFFD F2 z2 | FFFF F2 DF | GGGG G2 z2 | %28
 F F2 G AA z2 | G G2 A BB z2 | F F2 G A2 G2 | FBAG F4- | F4 z4 |] %33
V:3
 A,2 A,2 A,G,F,F, | A,2 B,=G, A,4 | A,2 A,2 A,A,A,A, | C2 C2 C4 | A,2 A,2 A,/D/D DA, | %5
 D2 D<[K:bass]A, D4 | A,2 A,2 A,/[K:treble]D/D DD | A,2[K:bass] A,2 A,4 | %8
 A, A,2 A,[K:treble] D D2 D | D D2 D D4 | A, A,2 A, D D2 D | C6 z2 | A, A,2 A, D D2[K:treble] D | %13
 D D2 D D2 C2 | D D2 D D[K:bass] D2 A, | A,2 B,2 A,2 z2 | A,A,A,A, A,2[K:treble] D2 | DDDA, D2 z2 | %18
 A,A,A,A, A,2 A,2 | A,A,A,A, A,2 z2 | A, A,2 A, DA,E,F, | D D2 D DD[K:bass]G,F, | B, B,2 E E2 D2 | %23
 C2 G,2 F,2 E,2 | A,A,A,A, A,2[K:treble] D2 | DDDA, D2 z2 | A,A,A,A, A,2 A,2 | A,A,A,A, A,2 z2 | %28
 A, A,2 A, DDE,F, | D D2 D DD[K:bass]F,G, | A, A,2 A, A,2 A,2 | A,DCB, A,4- | A,4 z4 |] %33
V:4
 D,2 D,2 D,D,D,D, | D,2 D,2 D,4 | E,2 C,2 A,,A,,G,F, | E,D,C,B,, A,,4 | D,2 D,2 D,D,D,D, | %5
 D,2 .D,2 D,4 | D,2 D,2 D,D,D,F, | E,D,C,B,, A,,4 | D, D,2 D, D, D,2 F, | G, G,2 G, D,4 | %10
 D, D,2 D, D, D,2 F, | A,3 B, A,G,F,E, | D, D,2 D, D, D,2 F, | G, G,2 G, D,2 E,2 | %14
 F, F,2 G, A, A,2 A,, | D,6 z2 | .D,4 z4 | D,2 A,,2 D,A,,B,,C, | D,2 A,,2 D,2 A,,2 | %19
 E,D,C,B,, A,,A,,B,,C, | D, D,2 D, D,D, z2 | G, G,2 G, G,G, z2 | E, E,2 E, E,2 E,2 | A,2 z2 z4 | %24
 D,2 A,,2 D,2 A,,2 | D,2 A,,2 D,A,,B,,C, | D,2 A,,2 D,2 A,,2 | D,C,C,B,, A,,A,,B,,C, | %28
 D, D,2 D, D,D, z2 | G, G,2 G, G,G, z2 | z4 A,,2 A,,2 | D,6 z2 | z8 |] %33
V:5
 x8 | x8 | x8 | x8 | x8 | x8 | x8 | x8 | x8 | x8 | x8 | x8 | x8 | x8 | x8 | x8 | z2 A,,2 D,2 A,,2 | %17
 x8 | x8 | x8 | x8 | x8 | x8 | x8 | x8 | x8 | x8 | x8 | x8 | x8 | x8 | x8 | x8 |] %33

